32x32/apps/sk1-color-picker.svg

<svg xmlns="http://www.w3.org/2000/svg" width="32" height="32" version="1.1">
 <path style="opacity:0.2" d="M 9.39808,4 A 1.7968022,1.7695345 0 0 0 7.8437213,4.8831364 L 4.5427615,10.498268 1.2418015,16.1134 a 1.7968022,1.7695345 0 0 0 0,1.773199 l 3.30096,5.615132 3.3009598,5.615132 A 1.7968022,1.7695345 0 0 0 9.39808,30 H 16 22.60192 a 1.7968022,1.7695345 0 0 0 1.55553,-0.883137 l 3.299788,-5.615132 3.30096,-5.615132 a 1.7968022,1.7695345 0 0 0 0,-1.773199 L 27.457238,10.498268 24.15745,4.8831364 A 1.7968022,1.7695345 0 0 0 22.60192,4 H 16 Z"/>
 <path style="fill:#3f474a" d="M 9.39808,3 A 1.7968022,1.7695345 0 0 0 7.8437213,3.8831364 L 4.5427615,9.4982682 1.2418015,15.1134 a 1.7968022,1.7695345 0 0 0 0,1.773199 l 3.30096,5.615132 3.3009598,5.615132 A 1.7968022,1.7695345 0 0 0 9.39808,29 H 16 22.60192 a 1.7968022,1.7695345 0 0 0 1.55553,-0.883137 l 3.299788,-5.615132 3.30096,-5.615132 a 1.7968022,1.7695345 0 0 0 0,-1.773199 L 27.457238,9.4982682 24.15745,3.8831364 A 1.7968022,1.7695345 0 0 0 22.60192,3 H 16 Z"/>
 <path style="opacity:0.2" d="M 10.230469,7 4.4609375,17 10.230469,27 H 21.769531 L 27.539062,17 21.769531,7 Z"/>
 <path style="fill:#73d216" d="m 10.230677,6 -5.7689754,9.999838 11.5382294,1.85e-4 z"/>
 <path style="fill:#ffe721" d="M 4.4614707,16.000346 10.230724,26 15.999978,16.000346 Z"/>
 <path style="fill:#f57900" d="m 10.231093,26 11.53823,-1.85e-4 -5.768977,-9.999838 z"/>
 <path style="fill:#ef2929" d="M 21.769414,25.999907 27.538391,16.000115 16.000162,15.99993 Z"/>
 <path style="fill:#8c398d" d="M 27.538529,16.000069 21.769277,6.0004157 16.000022,16.000069 Z"/>
 <path style="fill:#3465a4" d="M 21.769554,6.0003695 10.231324,6.0005544 16.0003,16.000393 Z"/>
 <path style="opacity:0.1;fill:#f4f4f7" d="M 9.3984375 3 A 1.7968022 1.7695345 0 0 0 7.84375 3.8828125 L 4.5429688 9.4980469 L 1.2421875 15.113281 A 1.7968022 1.7695345 0 0 0 1.0742188 16.5 A 1.7968022 1.7695345 0 0 1 1.2421875 16.113281 L 4.5429688 10.498047 L 7.84375 4.8828125 A 1.7968022 1.7695345 0 0 1 9.3984375 4 L 16 4 L 22.601562 4 A 1.7968022 1.7695345 0 0 1 24.158203 4.8828125 L 27.457031 10.498047 L 30.757812 16.113281 A 1.7968022 1.7695345 0 0 1 30.925781 16.5 A 1.7968022 1.7695345 0 0 0 30.757812 15.113281 L 27.457031 9.4980469 L 24.158203 3.8828125 A 1.7968022 1.7695345 0 0 0 22.601562 3 L 16 3 L 9.3984375 3 z"/>
 <path style="fill:#f4f4f7;opacity:0.1" d="M 10.230469 6 L 4.4609375 16 L 4.75 16.5 L 10.230469 7 L 21.769531 7 L 27.25 16.5 L 27.539062 16 L 21.769531 6 L 10.230469 6 z"/>
</svg>

<svg xmlns="http://www.w3.org/2000/svg" width="32" height="32"><path style="opacity:.2" d="M9.398 4a1.797 1.77 0 0 0-1.554.883l-3.301 5.615-3.301 5.615a1.797 1.77 0 0 0 0 1.774l3.3 5.615 3.302 5.615A1.797 1.77 0 0 0 9.398 30h13.204a1.797 1.77 0 0 0 1.555-.883l3.3-5.615 3.301-5.615a1.797 1.77 0 0 0 0-1.774l-3.3-5.615-3.3-5.615A1.797 1.77 0 0 0 22.601 4H16z"/><path style="fill:#3f474a" d="M9.398 3a1.797 1.77 0 0 0-1.554.883L4.543 9.498l-3.301 5.615a1.797 1.77 0 0 0 0 1.774l3.3 5.615 3.302 5.615A1.797 1.77 0 0 0 9.398 29h13.204a1.797 1.77 0 0 0 1.555-.883l3.3-5.615 3.301-5.615a1.797 1.77 0 0 0 0-1.774l-3.3-5.615-3.3-5.615A1.797 1.77 0 0 0 22.601 3H16z"/><path style="opacity:.2" d="M10.23 7 4.46 17l5.77 10h11.54l5.77-10-5.77-10z"/><path style="fill:#73d216" d="M10.23 6 4.463 16H16z"/><path style="fill:#ffe721" d="m4.461 16 5.77 10L16 16z"/><path style="fill:#f57900" d="M10.231 26H21.77L16 16z"/><path style="fill:#ef2929" d="m21.77 26 5.768-10H16z"/><path style="fill:#8c398d" d="m27.539 16-5.77-10L16 16z"/><path style="fill:#3465a4" d="M21.77 6H10.23l5.77 10z"/><path style="opacity:.1;fill:#f4f4f7" d="M9.398 3a1.797 1.77 0 0 0-1.554.883L4.543 9.498l-3.3 5.615a1.797 1.77 0 0 0-.169 1.387 1.797 1.77 0 0 1 .168-.387l3.301-5.615 3.3-5.615A1.797 1.77 0 0 1 9.399 4h13.204a1.797 1.77 0 0 1 1.556.883l3.299 5.615 3.3 5.615a1.797 1.77 0 0 1 .169.387 1.797 1.77 0 0 0-.168-1.387l-3.301-5.615-3.299-5.615A1.797 1.77 0 0 0 22.602 3H9.398z"/><path style="fill:#f4f4f7;opacity:.1" d="M10.23 6 4.46 16l.29.5L10.23 7h11.54l5.48 9.5.29-.5-5.77-10H10.23z"/></svg>
